src/symbolic/status/media-playlist-shuffle-rtl-symbolic.svg

<svg xmlns="http://www.w3.org/2000/svg" width="16" height="16"><path d="M3 13v-2h4a1 1 0 0 0 1-1V6c0-1.66 1.338-3 3-3h4v2h-4a1 1 0 0 0-1 1v4c0 1.66-1.338 3-3 3zM3 3v2h3.623a4.481 4.481 0 0 1 1.002-1.934A3.019 3.019 0 0 0 7 3zm8.377 8a4.484 4.484 0 0 1-1.002 1.934c.202.042.41.066.625.066h4v-2z" fill="#444"/><path d="M4 1v6L0 4zM4 9v6l-4-3z" fill="#444"/></svg>

<svg xmlns="http://www.w3.org/2000/svg" width="16" height="16" version="1.1">
 <path style="fill:#444444" d="M 3,13 V 11 H 7 C 7.554,11 8,10.55 8,10 V 6 C 8,4.34 9.338,3 11,3 H 15 V 5 H 11 C 10.446,5 10,5.45 10,6 V 10 C 10,11.66 8.662,13 7,13 Z"/>
 <path style="fill:#444444" d="M 3,3 V 5 H 6.623 C 6.792,4.2702 7.1462,3.6156 7.625,3.0664 7.4231,3.0238 7.2149,3 7,3 Z M 11.377,11 C 11.208,11.73 10.854,12.384 10.375,12.934 10.577,12.976 10.785,13 11,13 H 15 V 11 Z"/>
 <path style="fill:#444444" d="M 4,1 V 7 L 0,4 Z"/>
 <path style="fill:#444444" d="M 4,9 V 15 L 0,12 Z"/>
</svg>
